fs/calendar_clock_20_filled.svg

<svg viewBox="0 0 20 20" fill="none" xmlns="http://www.w3.org/2000/svg" height="1em" width="1em">
  <path d="M17 5.5C17 4.11929 15.8807 3 14.5 3H5.5C4.11929 3 3 4.11929 3 5.5V6H17V5.5ZM17 9.59971V7H3V14.5C3 15.8807 4.11929 17 5.5 17H9.59971C9.21628 16.2499 9 15.4002 9 14.5C9 11.4624 11.4624 9 14.5 9C15.4002 9 16.2499 9.21628 17 9.59971ZM14.5 19C16.9853 19 19 16.9853 19 14.5C19 12.0147 16.9853 10 14.5 10C12.0147 10 10 12.0147 10 14.5C10 16.9853 12.0147 19 14.5 19ZM14 12.5C14 12.2239 14.2239 12 14.5 12C14.7761 12 15 12.2239 15 12.5V14H16C16.2761 14 16.5 14.2239 16.5 14.5C16.5 14.7761 16.2761 15 16 15H14.5C14.2239 15 14 14.7761 14 14.5V12.5Z" fill="#212121"/>
</svg>

<svg viewBox="0 0 20 20" fill="none" xmlns="http://www.w3.org/2000/svg" height="1em" width="1em">
  <path d="M17 5.5A2.5 2.5 0 0 0 14.5 3h-9A2.5 2.5 0 0 0 3 5.5V6h14v-.5Zm0 4.1V7H3v7.5A2.5 2.5 0 0 0 5.5 17h4.1A5.5 5.5 0 0 1 17 9.6ZM14.5 19a4.5 4.5 0 1 0 0-9 4.5 4.5 0 0 0 0 9Zm-.5-6.5a.5.5 0 0 1 1 0V14h1a.5.5 0 0 1 0 1h-1.5a.5.5 0 0 1-.5-.5v-2Z" fill="#212121"/>
</svg>
